resources/icons/measurements/high.svg

<?xml version="1.0" encoding="UTF-8"?>
<svg width="30px" height="20px" version="1.1" viewBox="0 0 30 20" xmlns="http://www.w3.org/2000/svg">
 <g fill="none" fill-rule="evenodd">
  <g transform="translate(-1690 -350)">
   <g transform="translate(1690 351)">
    <path transform="translate(15 9) rotate(180) translate(-15 -9)" d="m1 16c0 1 1 2 3 2s3-2 3-2v-14h4c0-1 1-2 3-2 2-3.5527e-15 3 1 3 2v14h4c0 0.97902 1 2 3 2s3-1 3-2v-14c0-2 2-2 2-2" stroke="#727273" stroke-linecap="square" stroke-width="2"/>
    <rect y="2" width="30" height="1" fill="#4A64FF"/>
   </g>
  </g>
 </g>
</svg>

<?xml version="1.0" encoding="UTF-8" standalone="no"?>
<svg width="30px" height="20px" viewBox="0 0 30 20" version="1.1" xmlns="http://www.w3.org/2000/svg" xmlns:xlink="http://www.w3.org/1999/xlink">
    <!-- Generator: Sketch 41 (35326) - http://www.bohemiancoding.com/sketch -->
    <title>high</title>
    <desc>Created with Sketch.</desc>
    <defs></defs>
    <g id="main" stroke="none" stroke-width="1" fill="none" fill-rule="evenodd">
        <g id="gating-icons-HD" transform="translate(-1690.000000, -350.000000)">
            <g id="high" transform="translate(1690.000000, 351.000000)">
                <path d="M1,16 C1,17 2,18 4,18 C6,18 7,16 7,16 L7,2 C7,2 10,2 11,2 C11,1 12,1.49584726e-13 14,1.45661261e-13 C16,1.42108547e-13 17,1 17,2 C17,3 17,16 17,16 C17,16 19,16 21,16 C21,16.9790159 22,18 24,18 C26,18 27,17 27,16 C27,13 27,4.5 27,2 C27,0 29,0 29,0" id="Line-Copy-14" stroke="#727273" stroke-width="2" stroke-linecap="square" transform="translate(15.000000, 9.000000) rotate(-180.000000) translate(-15.000000, -9.000000) "></path>
                <rect id="Rectangle_2_copy_122-Copy-28" fill="#4A64FF" x="0" y="2" width="30" height="1"></rect>
            </g>
        </g>
    </g>
</svg>
